wp-content/themes/sd-accesslasers/public/images/application/icons/application-8.svg

<?xml version="1.0" encoding="UTF-8"?>
<svg width="120px" height="120px" viewBox="0 0 120 120" version="1.1" xmlns="http://www.w3.org/2000/svg" xmlns:xlink="http://www.w3.org/1999/xlink">
    <!-- Generator: Sketch 55 (78076) - https://sketchapp.com -->
    <title>8</title>
    <desc>Created with Sketch.</desc>
    <g id="Home" stroke="none" stroke-width="1" fill="none" fill-rule="evenodd">
        <g id="AL_Home-Copy" transform="translate(-900.000000, -3155.000000)" fill="currentColor" fill-rule="nonzero">
            <g id="Features" transform="translate(195.000000, 1665.000000)">
                <g id="Icons">
                    <g id="5" transform="translate(566.000000, 1420.000000)">
                        <g id="icon" transform="translate(139.000000, 70.000000)">
                            <g id="Group" transform="translate(0.000000, 11.000000)">
                                <path d="M113.4375,42.4038462 C110.4375,42.4038462 107.8125,44.4769231 107.0625,47.1153846 L96.1875,47.1153846 C95.4375,44.2884615 92.8125,42.4038462 89.8125,42.4038462 C89.25,42.4038462 88.6875,42.4038462 88.3125,42.5923077 L79.875,27.8923077 C81,26.7615385 81.75,25.0653846 81.75,23.3692308 C81.75,22.2384615 81.375,21.1076923 81,20.1653846 L88.3125,12.8153846 C89.25,13.3807692 90.375,13.5692308 91.5,13.5692308 C95.25,13.5692308 98.0625,10.5538462 98.0625,6.97307692 C98.0625,3.39230769 95.0625,0.376923077 91.5,0.376923077 C87.75,0.376923077 84.9375,3.39230769 84.9375,6.97307692 C84.9375,8.10384615 85.3125,9.23461538 85.6875,10.1769231 L78.5625,17.3384615 C77.625,16.7730769 76.5,16.5846154 75.375,16.5846154 C72.375,16.5846154 69.75,18.6576923 69,21.4846154 L51.9375,21.4846154 C51.1875,18.6576923 48.5625,16.5846154 45.5625,16.5846154 C44.4375,16.5846154 43.3125,16.9615385 42.375,17.3384615 L35.25,10.1769231 C35.8125,9.23461538 36,8.10384615 36,6.97307692 C36,3.20384615 33,0.376923077 29.25,0.376923077 C25.5,0.376923077 22.6875,3.39230769 22.6875,6.97307692 C22.6875,10.5538462 25.6875,13.5692308 29.25,13.5692308 C30.375,13.5692308 31.5,13.1923077 32.4375,12.8153846 L39.5625,19.9769231 C39,20.9192308 38.8125,22.05 38.8125,23.1807692 C38.8125,24.8769231 39.5625,26.5730769 40.6875,27.7038462 L31.875,42.5923077 C31.3125,42.4038462 30.9375,42.4038462 30.375,42.4038462 C27.375,42.4038462 24.75,44.4769231 24,47.1153846 L12.9375,47.1153846 C12.1875,44.2884615 9.5625,42.4038462 6.5625,42.4038462 C3,42.4038462 0,45.2307692 0,49 C0,52.7692308 3,55.5961538 6.5625,55.5961538 C9.5625,55.5961538 12.1875,53.5230769 12.9375,50.6961538 L23.8125,50.6961538 C24.5625,53.5230769 27.1875,55.5961538 30.1875,55.5961538 C30.75,55.5961538 31.3125,55.5961538 31.6875,55.4076923 L40.125,70.1076923 C39,71.2384615 38.25,72.9346154 38.25,74.6307692 C38.25,75.7615385 38.625,76.8923077 39,77.8346154 L31.6875,84.9961538 C30.75,84.4307692 29.625,84.2423077 28.5,84.2423077 C24.75,84.2423077 21.9375,87.2576923 21.9375,90.8384615 C21.9375,94.6076923 24.9375,97.4346154 28.5,97.4346154 C32.25,97.4346154 35.25,94.4192308 35.25,90.8384615 C35.25,89.7076923 34.875,88.5769231 34.5,87.6346154 L41.625,80.4730769 C42.5625,81.0384615 43.6875,81.2269231 44.8125,81.2269231 C47.8125,81.2269231 50.4375,79.1538462 51.1875,76.5153846 L68.25,76.5153846 C69,79.3423077 71.625,81.2269231 74.625,81.2269231 C75.75,81.2269231 76.875,80.85 77.8125,80.4730769 L84.9375,87.6346154 C84.375,88.5769231 84.1875,89.7076923 84.1875,90.8384615 C84.1875,94.6076923 87.1875,97.4346154 90.75,97.4346154 C94.5,97.4346154 97.3125,94.4192308 97.3125,90.8384615 C97.3125,87.0692308 94.3125,84.2423077 90.75,84.2423077 C89.625,84.2423077 88.5,84.6192308 87.5625,84.9961538 L80.625,78.0230769 C81.1875,77.0807692 81.375,75.95 81.375,74.8192308 C81.375,73.1230769 80.625,71.4269231 79.5,70.2961538 L87.9375,55.5961538 C88.5,55.7846154 88.875,55.7846154 89.4375,55.7846154 C92.4375,55.7846154 95.0625,53.7115385 95.8125,50.8846154 L106.6875,50.8846154 C107.4375,53.7115385 110.0625,55.7846154 113.0625,55.7846154 C116.8125,55.7846154 119.625,52.7692308 119.625,49.1884615 C119.625,45.6076923 117,42.4038462 113.4375,42.4038462 Z M6.5625,52.0153846 C5.0625,52.0153846 3.75,50.6961538 3.75,49 C3.75,47.3038462 5.0625,45.9846154 6.5625,45.9846154 C8.25,45.9846154 9.5625,47.3038462 9.5625,49 C9.5625,50.6961538 8.25,52.0153846 6.5625,52.0153846 Z M91.125,3.95769231 C92.8125,3.95769231 93.9375,5.27692308 93.9375,6.78461538 C93.9375,8.48076923 92.625,9.61153846 91.125,9.61153846 C89.625,9.61153846 88.125,8.48076923 88.125,6.78461538 C88.125,5.27692308 89.4375,3.95769231 91.125,3.95769231 Z M74.8125,20.1653846 C76.5,20.1653846 77.625,21.4846154 77.625,22.9923077 C77.625,24.6884615 76.3125,25.8192308 74.8125,25.8192308 C73.3125,25.8192308 72,24.5 72,22.9923077 C72,21.4846154 73.3125,20.1653846 74.8125,20.1653846 Z M45.1875,20.1653846 C46.875,20.1653846 48,21.4846154 48,22.9923077 C48,24.6884615 46.6875,25.8192308 45.1875,25.8192308 C43.5,25.8192308 42.1875,24.5 42.1875,22.9923077 C42.1875,21.4846154 43.5,20.1653846 45.1875,20.1653846 Z M26.0625,6.78461538 C26.0625,5.08846154 27.375,3.95769231 28.875,3.95769231 C30.5625,3.95769231 31.875,5.27692308 31.875,6.78461538 C31.875,8.48076923 30.5625,9.61153846 28.875,9.61153846 C27.375,9.8 26.0625,8.48076923 26.0625,6.78461538 Z M27.375,49 C27.375,47.3038462 28.6875,45.9846154 30.1875,45.9846154 C31.6875,45.9846154 33,47.3038462 33,49 C33,50.6961538 31.6875,51.8269231 30.1875,51.8269231 C28.6875,51.8269231 27.375,50.6961538 27.375,49 Z M28.875,94.0423077 C27.1875,94.0423077 26.0625,92.7230769 26.0625,91.2153846 C26.0625,89.7076923 27.375,88.3884615 28.875,88.3884615 C30.5625,88.3884615 31.875,89.7076923 31.875,91.2153846 C31.875,92.7230769 30.5625,94.0423077 28.875,94.0423077 Z M45.1875,77.8346154 C43.5,77.8346154 42.1875,76.5153846 42.1875,74.8192308 C42.1875,73.1230769 43.5,71.9923077 45.1875,71.9923077 C46.875,71.9923077 48,73.3115385 48,74.8192308 C48,76.5153846 46.6875,77.8346154 45.1875,77.8346154 Z M68.4375,72.9346154 L51.375,72.9346154 C50.625,70.1076923 48,68.0346154 45,68.0346154 C44.4375,68.0346154 43.875,68.0346154 43.5,68.2230769 L35.0625,53.5230769 C36.1875,52.3923077 36.9375,50.6961538 36.9375,49 C36.9375,47.3038462 36.1875,45.6076923 35.0625,44.4769231 L43.5,29.7769231 C44.0625,29.9653846 44.4375,29.9653846 45,29.9653846 C48,29.9653846 50.625,27.8923077 51.375,25.2538462 L68.4375,25.2538462 C69.1875,28.0807692 71.8125,29.9653846 74.8125,29.9653846 C75.375,29.9653846 75.9375,29.9653846 76.3125,29.7769231 L84.75,44.4769231 C83.625,45.6076923 82.875,47.3038462 82.875,49 C82.875,50.6961538 83.625,52.3923077 84.75,53.5230769 L76.3125,68.2230769 C75.75,68.0346154 75.375,68.0346154 74.8125,68.0346154 C71.8125,68.2230769 69.375,70.1076923 68.4375,72.9346154 Z M74.8125,77.8346154 C73.125,77.8346154 72,76.5153846 72,74.8192308 C72,73.1230769 73.3125,71.9923077 74.8125,71.9923077 C76.3125,71.9923077 77.625,73.3115385 77.625,74.8192308 C77.8125,76.5153846 76.5,77.8346154 74.8125,77.8346154 Z M93.9375,91.2153846 C93.9375,92.9115385 92.625,94.0423077 91.125,94.0423077 C89.625,94.0423077 88.125,92.7230769 88.125,91.2153846 C88.125,89.7076923 89.4375,88.3884615 90.9375,88.3884615 C92.4375,88.3884615 93.9375,89.5192308 93.9375,91.2153846 Z M89.625,52.0153846 C87.9375,52.0153846 86.625,50.6961538 86.625,49.1884615 C86.625,47.4923077 87.9375,46.1730769 89.625,46.1730769 C91.3125,46.1730769 92.4375,47.4923077 92.4375,49.1884615 C92.625,50.6961538 91.3125,52.0153846 89.625,52.0153846 Z M113.4375,52.0153846 C111.75,52.0153846 110.625,50.6961538 110.625,49.1884615 C110.625,47.4923077 111.9375,46.1730769 113.4375,46.1730769 C115.125,46.1730769 116.25,47.4923077 116.25,49.1884615 C116.25,50.6961538 114.9375,52.0153846 113.4375,52.0153846 Z" id="Shape"></path>
                                <path d="M79.875,48.0576923 L70.6875,32.2269231 C70.3125,31.6615385 69.75,31.2846154 69,31.2846154 L50.8125,31.2846154 C50.0625,31.2846154 49.5,31.6615385 49.125,32.2269231 L39.9375,48.0576923 C39.5625,48.6230769 39.5625,49.3769231 39.9375,49.9423077 L49.125,65.7730769 C49.5,66.3384615 50.0625,66.7153846 50.8125,66.7153846 L69,66.7153846 C69.75,66.7153846 70.3125,66.3384615 70.6875,65.7730769 L79.875,49.9423077 C80.25,49.3769231 80.25,48.6230769 79.875,48.0576923 Z M68.0625,62.9461538 L51.9375,62.9461538 L43.875,49 L51.9375,35.0538462 L68.0625,35.0538462 L76.125,49 L68.0625,62.9461538 Z" id="Shape"></path>
                            </g>
                        </g>
                    </g>
                </g>
            </g>
        </g>
    </g>
</svg>

<svg width="120" height="120" viewBox="0 0 120 120" version="1.1" xmlns="http://www.w3.org/2000/svg"><g id="Home" stroke="none" stroke-width="1" fill="none" fill-rule="evenodd"><g id="AL_Home-Copy" transform="translate(-900 -3155)" fill="currentColor" fill-rule="nonzero"><g id="Features" transform="translate(195 1665)"><g id="Icons"><g id="5" transform="translate(566 1420)"><g id="icon" transform="translate(139 70)"><g id="Group" transform="translate(0 11)"><path d="M113.438 42.404c-3 0-5.626 2.073-6.376 4.711H96.189c-.75-2.827-3.376-4.711-6.376-4.711-.562 0-1.124 0-1.5.188l-8.437-14.7c1.125-1.13 1.875-2.827 1.875-4.523 0-1.13-.375-2.261-.75-3.204l7.313-7.35c.937.566 2.062.754 3.187.754 3.75 0 6.563-3.015 6.563-6.596 0-3.58-3-6.596-6.563-6.596-3.75 0-6.563 3.015-6.563 6.596 0 1.13.376 2.262.75 3.204l-7.124 7.161c-.938-.565-2.063-.753-3.188-.753-3 0-5.625 2.073-6.375 4.9H51.937c-.75-2.827-3.374-4.9-6.374-4.9-1.126 0-2.25.377-3.188.753l-7.125-7.161c.563-.942.75-2.073.75-3.204 0-3.77-3-6.596-6.75-6.596s-6.563 3.015-6.563 6.596c0 3.58 3 6.596 6.563 6.596 1.125 0 2.25-.377 3.188-.754l7.124 7.162c-.562.942-.75 2.073-.75 3.204 0 1.696.75 3.392 1.876 4.523l-8.813 14.888c-.563-.188-.938-.188-1.5-.188-3 0-5.625 2.073-6.375 4.711H12.937c-.75-2.827-3.374-4.711-6.374-4.711A6.538 6.538 0 0 0 0 49c0 3.77 3 6.596 6.563 6.596 3 0 5.625-2.073 6.375-4.9h10.874c.75 2.827 3.375 4.9 6.375 4.9.563 0 1.125 0 1.5-.188l8.438 14.7C39 71.238 38.25 72.935 38.25 74.63c0 1.13.375 2.261.75 3.204l-7.313 7.161c-.937-.565-2.062-.754-3.187-.754-3.75 0-6.563 3.016-6.563 6.596 0 3.77 3 6.597 6.563 6.597 3.75 0 6.75-3.016 6.75-6.597 0-1.13-.375-2.261-.75-3.203l7.125-7.162c.938.565 2.063.754 3.188.754 3 0 5.624-2.073 6.374-4.712H68.25c.75 2.827 3.375 4.712 6.375 4.712 1.125 0 2.25-.377 3.188-.754l7.124 7.162c-.562.942-.75 2.073-.75 3.203 0 3.77 3 6.597 6.563 6.597 3.75 0 6.563-3.016 6.563-6.597 0-3.769-3-6.596-6.563-6.596-1.125 0-2.25.377-3.188.754l-6.937-6.973c.563-.942.75-2.073.75-3.204 0-1.696-.75-3.392-1.875-4.523l8.438-14.7c.562.189.937.189 1.5.189 3 0 5.624-2.073 6.374-4.9h10.876c.75 2.827 3.374 4.9 6.374 4.9 3.75 0 6.563-3.016 6.563-6.597 0-3.58-2.625-6.784-6.188-6.784zM6.561 52.015c-1.5 0-2.812-1.319-2.812-3.015 0-1.696 1.313-3.015 2.813-3.015 1.687 0 3 1.319 3 3.015 0 1.696-1.313 3.015-3 3.015zM91.126 3.958c1.688 0 2.813 1.319 2.813 2.827 0 1.696-1.313 2.827-2.813 2.827-1.5 0-3-1.131-3-2.827 0-1.508 1.313-2.827 3-2.827zM74.812 20.165c1.688 0 2.813 1.32 2.813 2.827 0 1.696-1.313 2.827-2.813 2.827-1.5 0-2.812-1.319-2.812-2.827 0-1.507 1.313-2.827 2.813-2.827zm-29.624 0c1.687 0 2.812 1.32 2.812 2.827 0 1.696-1.313 2.827-2.813 2.827-1.687 0-3-1.319-3-2.827 0-1.507 1.313-2.827 3-2.827zM26.061 6.785c0-1.697 1.313-2.827 2.813-2.827 1.688 0 3 1.319 3 2.827 0 1.696-1.313 2.827-3 2.827-1.5.188-2.813-1.131-2.813-2.827zM27.375 49c0-1.696 1.313-3.015 2.813-3.015 1.5 0 2.812 1.319 2.812 3.015 0 1.696-1.313 2.827-2.813 2.827-1.5 0-2.812-1.13-2.812-2.827zm1.5 45.042c-1.688 0-2.813-1.319-2.813-2.827 0-1.507 1.313-2.827 2.813-2.827 1.688 0 3 1.32 3 2.827 0 1.508-1.313 2.827-3 2.827zm16.313-16.207c-1.688 0-3-1.32-3-3.016s1.312-2.827 3-2.827c1.687 0 2.812 1.32 2.812 2.827 0 1.696-1.313 3.016-2.813 3.016zm23.25-4.9H51.374c-.75-2.827-3.375-4.9-6.375-4.9-.563 0-1.125 0-1.5.188l-8.438-14.7c1.126-1.13 1.876-2.827 1.876-4.523 0-1.696-.75-3.392-1.876-4.523l8.438-14.7c.563.188.938.188 1.5.188 3 0 5.625-2.073 6.375-4.711h17.063c.75 2.827 3.374 4.711 6.374 4.711.563 0 1.126 0 1.5-.188l8.438 14.7c-1.125 1.13-1.875 2.827-1.875 4.523 0 1.696.75 3.392 1.875 4.523l-8.438 14.7c-.562-.188-.937-.188-1.5-.188-3 .188-5.437 2.073-6.374 4.9zm6.374 4.9c-1.687 0-2.812-1.32-2.812-3.016s1.313-2.827 2.813-2.827c1.5 0 2.812 1.32 2.812 2.827.188 1.696-1.125 3.016-2.813 3.016zm19.126 13.38c0 1.697-1.313 2.827-2.813 2.827-1.5 0-3-1.319-3-2.827 0-1.507 1.313-2.827 2.813-2.827 1.5 0 3 1.131 3 2.827zm-4.313-39.2c-1.688 0-3-1.319-3-2.827 0-1.696 1.313-3.015 3-3.015 1.688 0 2.813 1.32 2.813 3.015.187 1.508-1.126 2.827-2.813 2.827zm23.813 0c-1.688 0-2.813-1.319-2.813-2.827 0-1.696 1.313-3.015 2.813-3.015 1.687 0 2.812 1.32 2.812 3.015 0 1.508-1.313 2.827-2.813 2.827z" id="Shape"/><path d="M79.875 48.058l-9.188-15.831c-.374-.565-.937-.942-1.687-.942H50.812c-.75 0-1.312.377-1.687.942l-9.188 15.83a1.72 1.72 0 0 0 0 1.885l9.188 15.831c.375.565.938.942 1.688.942H69c.75 0 1.313-.377 1.688-.942l9.187-15.83a1.72 1.72 0 0 0 0-1.885zM68.062 62.946H51.939L43.874 49l8.063-13.946h16.124L76.126 49l-8.063 13.946z" id="Shape"/></g></g></g></g></g></g></g></svg>
